assets/Sun with face/Flat/sun_with_face_flat.svg

<svg width="32" height="32" viewBox="0 0 32 32" fill="none" xmlns="http://www.w3.org/2000/svg">
<path d="M13.0713 3.7854C14.1413 1.4454 17.4413 1.3954 18.5913 3.6954C19.0213 4.5554 20.0813 4.8854 20.9213 4.4154L21.4413 4.1254C23.4813 2.9654 25.9313 4.6954 25.5413 6.9954L25.4413 7.5854C25.2813 8.5354 25.9513 9.4254 26.9113 9.5354L27.5013 9.6054C29.8213 9.8754 30.7913 12.7054 29.1213 14.3354L28.6913 14.7554C28.0013 15.4254 28.0213 16.5454 28.7313 17.1954L29.1713 17.5954C30.8913 19.1754 30.0113 22.0354 27.7013 22.3754L27.1113 22.4654C26.1613 22.6054 25.5213 23.5154 25.7113 24.4654L25.8313 25.0554C26.2913 27.3454 23.9013 29.1454 21.8313 28.0554L21.3013 27.7754C20.4513 27.3254 19.3913 27.6854 18.9913 28.5654C17.9213 30.9054 14.6213 30.9554 13.4713 28.6554C13.0413 27.7954 11.9813 27.4654 11.1413 27.9354L10.6213 28.2254C8.59131 29.3754 6.14131 27.6454 6.53131 25.3454L6.63131 24.7554C6.79131 23.8054 6.12131 22.9154 5.16131 22.8054L4.57131 22.7354C2.25131 22.4654 1.28131 19.6354 2.95131 18.0054L3.38131 17.5854C4.07131 16.9154 4.05131 15.7954 3.34131 15.1454L2.90131 14.7454C1.18131 13.1654 2.06131 10.3054 4.37131 9.9654L4.96131 9.8754C5.91131 9.7354 6.55131 8.8254 6.36131 7.8754L6.24131 7.2954C5.78131 5.0054 8.17131 3.2054 10.2413 4.2954L10.7713 4.5754C11.6213 5.0154 12.6713 4.6554 13.0713 3.7854Z" fill="#FF822D"/>
<path d="M15.9913 27.1654C22.0665 27.1654 26.9913 22.2405 26.9913 16.1654C26.9913 10.0903 22.0665 5.16541 15.9913 5.16541C9.9162 5.16541 4.99133 10.0903 4.99133 16.1654C4.99133 22.2405 9.9162 27.1654 15.9913 27.1654Z" fill="#FCD53F"/>
<path d="M10.6613 9.20532C9.29632 9.20532 8.18127 10.3126 8.18127 11.6853C8.18127 11.9615 7.95742 12.1853 7.68127 12.1853C7.40513 12.1853 7.18127 11.9615 7.18127 11.6853C7.18127 9.75809 8.74623 8.20532 10.6613 8.20532C10.9374 8.20532 11.1613 8.42918 11.1613 8.70532C11.1613 8.98146 10.9374 9.20532 10.6613 9.20532ZM10.9009 17.745C11.1938 17.4521 11.6687 17.4521 11.9616 17.745C14.1187 19.9021 17.6138 19.9021 19.7709 17.745C20.0638 17.4521 20.5387 17.4521 20.8316 17.745C21.1245 18.0379 21.1245 18.5128 20.8316 18.8057C18.0887 21.5486 13.6438 21.5486 10.9009 18.8057C10.6081 18.5128 10.6081 18.0379 10.9009 17.745ZM21.0413 8.20532C20.7651 8.20532 20.5413 8.42918 20.5413 8.70532C20.5413 8.98146 20.7651 9.20532 21.0413 9.20532C22.4062 9.20532 23.5213 10.3126 23.5213 11.6853C23.5213 11.9615 23.7451 12.1853 24.0213 12.1853C24.2974 12.1853 24.5213 11.9615 24.5213 11.6853C24.5213 9.75809 22.9563 8.20532 21.0413 8.20532ZM11.5813 12.6854C10.9942 12.6854 10.4984 13.0423 10.2994 13.5493C10.1481 13.9349 9.7129 14.1248 9.32731 13.9735C8.94172 13.8222 8.7518 13.387 8.9031 13.0014C9.32414 11.9284 10.3683 11.1854 11.5813 11.1854C12.8536 11.1854 13.935 12.0113 14.3136 13.1607C14.4432 13.5541 14.2293 13.9781 13.8359 14.1077C13.4425 14.2373 13.0185 14.0234 12.8889 13.63C12.7076 13.0794 12.189 12.6854 11.5813 12.6854ZM18.9194 13.5493C19.1184 13.0423 19.6142 12.6854 20.2013 12.6854C20.809 12.6854 21.3275 13.0794 21.5089 13.63C21.6385 14.0234 22.0625 14.2373 22.4559 14.1077C22.8493 13.9781 23.0632 13.5541 22.9336 13.1607C22.555 12.0113 21.4736 11.1854 20.2013 11.1854C18.9883 11.1854 17.9441 11.9284 17.5231 13.0014C17.3718 13.387 17.5617 13.8222 17.9473 13.9735C18.3329 14.1248 18.7681 13.9349 18.9194 13.5493Z" fill="#321B41"/>
</svg>

<svg xmlns="http://www.w3.org/2000/svg" width="32" height="32" fill="none"><path fill="#FF822D" d="M13.071 3.785c1.07-2.34 4.37-2.39 5.52-.09.43.86 1.49 1.19 2.33.72l.52-.29c2.04-1.16 4.49.57 4.1 2.87l-.1.59c-.16.95.51 1.84 1.47 1.95l.59.07c2.32.27 3.29 3.1 1.62 4.73l-.43.42c-.69.67-.67 1.79.04 2.44l.44.4c1.72 1.58.84 4.44-1.47 4.78l-.59.09c-.95.14-1.59 1.05-1.4 2l.12.59c.46 2.29-1.93 4.09-4 3l-.53-.28c-.85-.45-1.91-.09-2.31.79-1.07 2.34-4.37 2.39-5.52.09a1.685 1.685 0 0 0-2.33-.72l-.52.29c-2.03 1.15-4.48-.58-4.09-2.88l.1-.59c.16-.95-.51-1.84-1.47-1.95l-.59-.07c-2.32-.27-3.29-3.1-1.62-4.73l.43-.42c.69-.67.67-1.79-.04-2.44l-.44-.4c-1.72-1.58-.84-4.44 1.47-4.78l.59-.09c.95-.14 1.59-1.05 1.4-2l-.12-.58c-.46-2.29 1.93-4.09 4-3l.53.28c.85.44 1.9.08 2.3-.79Z"/><path fill="#FCD53F" d="M15.991 27.165c6.076 0 11-4.924 11-11 0-6.075-4.924-11-11-11-6.075 0-11 4.925-11 11 0 6.076 4.925 11 11 11Z"/><path fill="#321B41" d="M10.661 9.205a2.481 2.481 0 0 0-2.48 2.48.5.5 0 1 1-1 0 3.481 3.481 0 0 1 3.48-3.48.5.5 0 0 1 0 1Zm.24 8.54a.75.75 0 0 1 1.06 0 5.52 5.52 0 0 0 7.81 0 .75.75 0 0 1 1.06 1.06 7.021 7.021 0 0 1-9.93 0 .75.75 0 0 1 0-1.06Zm10.14-9.54a.5.5 0 1 0 0 1 2.481 2.481 0 0 1 2.48 2.48.5.5 0 1 0 1 0 3.481 3.481 0 0 0-3.48-3.48Zm-9.46 4.48c-.587 0-1.083.357-1.282.864a.75.75 0 1 1-1.396-.548 2.869 2.869 0 0 1 2.678-1.816c1.273 0 2.354.826 2.733 1.976a.75.75 0 0 1-1.425.469c-.181-.55-.7-.945-1.308-.945Zm7.338.864a1.369 1.369 0 0 1 1.282-.864c.608 0 1.127.394 1.308.945a.75.75 0 0 0 1.425-.47 2.877 2.877 0 0 0-2.733-1.975 2.869 2.869 0 0 0-2.678 1.816.75.75 0 1 0 1.396.548Z"/></svg>
